svgs/regular/wave-square.svg

<svg xmlns="http://www.w3.org/2000/svg" viewBox="0 0 640 512"><!--! Font Awesome Pro 6.6.0 by @fontawesome - https://fontawesome.com License - https://fontawesome.com/license (Commercial License) Copyright 2024 Fonticons, Inc. --><path d="M136 56c0-13.3 10.7-24 24-24l160 0c13.3 0 24 10.7 24 24l0 376 112 0 0-176c0-13.3 10.7-24 24-24l136 0c13.3 0 24 10.7 24 24s-10.7 24-24 24l-112 0 0 176c0 13.3-10.7 24-24 24l-160 0c-13.3 0-24-10.7-24-24l0-376L184 80l0 176c0 13.3-10.7 24-24 24L24 280c-13.3 0-24-10.7-24-24s10.7-24 24-24l112 0 0-176z"/></svg>

<svg xmlns="http://www.w3.org/2000/svg" viewBox="0 0 640 512"><!--! Font Awesome Pro 6.4.2 by @fontawesome - https://fontawesome.com License - https://fontawesome.com/license (Commercial License) Copyright 2023 Fonticons, Inc. --><path d="M136 56c0-13.3 10.7-24 24-24H320c13.3 0 24 10.7 24 24V432H456V256c0-13.3 10.7-24 24-24H616c13.3 0 24 10.7 24 24s-10.7 24-24 24H504V456c0 13.3-10.7 24-24 24H320c-13.3 0-24-10.7-24-24V80H184V256c0 13.3-10.7 24-24 24H24c-13.3 0-24-10.7-24-24s10.7-24 24-24H136V56z"/></svg>
